icons/svg/reproduction.svg

﻿<?xml version="1.0" encoding="utf-8"?>
<!DOCTYPE svg PUBLIC "-//W3C//DTD SVG 1.1//EN" "http://www.w3.org/Graphics/SVG/1.1/DTD/svg11.dtd">
<svg xmlns="http://www.w3.org/2000/svg" xmlns:xlink="http://www.w3.org/1999/xlink" version="1.1" baseProfile="full" width="24" height="24" viewBox="0 0 24.00 24.00" enable-background="new 0 0 24.00 24.00" xml:space="preserve">
	<path fill="#000000" fill-opacity="1" stroke-width="0.2" stroke-linejoin="round" d="M 12.7249,13.1538L 13.6194,12.2592C 13.5967,11.0139 14.3127,9.44468 15.6213,8.13604C 17.5739,6.18342 20.1066,5.55026 21.2782,6.72183C 22.4497,7.8934 21.8166,10.4261 19.864,12.3787C 18.5553,13.6873 16.9861,14.4033 15.7407,14.3806L 14.8462,15.2751C 14.5089,15.6124 13.9906,15.6584 13.604,15.413C 12.7612,15.7148 11.9847,16.0828 11.5555,16.7981C 11.0251,17.682 11.0251,19.0962 10.4653,19.9506C 9.90554,20.805 8.78596,21.0997 7.60744,21.0997C 6.42893,21.0997 5,21 3.95406,19.5104L 6.42893,19.9211C 7,20 8.49133,19.3908 9.05112,18.5364C 9.61092,17.682 9.61092,16.2678 10.1412,15.3839C 10.6115,14.6001 11.4988,14.2333 12.4334,13.9138C 12.419,13.6405 12.5162,13.3625 12.7249,13.1538 Z M 7,2.00001C 9.76142,2.00001 12,4.23858 12,7C 12,9.76143 9.76142,12 7,12C 4.23858,12 2,9.76143 2,7C 2,4.23858 4.23857,2.00001 7,2.00001 Z M 7,4C 5.34314,4 4,5.34315 4,7C 4,8.65686 5.34314,10 7,10C 8.65685,10 10,8.65686 10,7C 10,5.34315 8.65685,4 7,4 Z "/>
</svg>

<svg xmlns="http://www.w3.org/2000/svg" version="1.1" baseProfile="full" width="24" height="24" viewBox="0 0 24.00 24.00" xml:space="preserve"><path fill="#000" fill-opacity="1" stroke-width=".2" stroke-linejoin="round" d="M12.725 13.154l.894-.895c-.023-1.246.693-2.815 2-4.124 1.954-1.953 4.487-2.586 5.658-1.414 1.172 1.17.54 3.704-1.414 5.657-1.31 1.307-2.878 2.023-4.123 2l-.894.895c-.337.337-.855.383-1.242.138-.843.302-1.62.67-2.048 1.385-.53.884-.53 2.298-1.09 3.153s-1.68 1.15-2.86 1.15C6.43 21.1 5 21 3.955 19.51l2.475.41c.57.08 2.06-.53 2.62-1.384.56-.854.56-2.268 1.09-3.152.47-.784 1.36-1.15 2.293-1.47-.014-.274.083-.55.292-.76zM7 2c2.76 0 5 2.24 5 5s-2.24 5-5 5-5-2.24-5-5 2.24-5 5-5zm0 2C5.343 4 4 5.343 4 7s1.343 3 3 3 3-1.343 3-3-1.343-3-3-3z"/></svg>
